static/assets/template/assets/img/icons/essential/detailed/Medal_1_.svg

<svg height="150" viewBox="0 0 103 150" width="103" xmlns="http://www.w3.org/2000/svg"><g fill="none" fill-rule="evenodd" transform="translate(2 1)"><path d="m66.8 48.8-2.5 7.6-14.8 44.2-1.5 4.2-7.4 22.2-1.3 4-2.4-4-9.2-15.3-.7-1.1-17.8 7.1-4.3 1.8 6-17.8 1.4-4.3 20.2-60.1 3.3 1.1z" fill-rule="nonzero"/><path d="m99.5 135.9-19.1-7.7-3-1.2-9.9 16.5-2.3 3.9-13.9-41.4-1.8-5.4-11.9-35.3 26.7-8.9 4.1-1.4 3.5-1.2.4 1.1 26.6 79.3z" fill-rule="nonzero"/><path d="m70.5 48.8-2.1 6.2-.5 1.4-15.5 42-.1.4-1.9.6-.9 1.2-1.5 4.2-7.4 22.2-9.9-16.4-3 1.1-.7-1.1-17.8 7.1 8.2-24.4 18.4-54.9.4-1.1z" fill-rule="nonzero"/><path d="m98.9 134.2-17.8-7.2-.7 1.2-3-1.2-9.9 16.5-13-38.8-1.4-4.1-.7-2.2-1.1-3.3-10-29.8 22.5-7.6 4.1-1.3 4.4-1.5 12.2 36.4z" fill-rule="nonzero"/><path d="m84.5 91.3c-8.1 7.4-18.5 12.3-30 13.3-1.2.1-2.4.2-3.6.2l-1.4-4.3-1.4 4.3c-11.6-.4-22.3-4.7-30.7-11.5l18.4-54.9.4-1.1 34.3 11.5-2.1 6.2-.5 1.4 4.4-1.5z" fill="#5ea6ff" fill-rule="nonzero"/><path d="m30.8 116.9-3.8-6.3-22.1 8.9 9.1-27.1" stroke-linecap="round" stroke-linejoin="round" stroke-width="3"/><path d="m33.2 120.8-.5-.7" stroke-linecap="round" stroke-linejoin="round" stroke-width="3"/><path d="m36.9 127 2.4 4 1.3-4 7.4-22.2 1.5-4.2 14.8-44.2 2.5-7.6-31-10.4-3.3-1.1-16.4 48.8" stroke-linecap="round" stroke-linejoin="round" stroke-width="3"/><path d="m55.1 117.4-4.2-12.5-1.4-4.3-11.9-35.3 26.7-8.9 4.1-1.4 3.5-1.2.4 1.1 12.2 36.4 15 44.6-22.1-8.9-12.2 20.4-6.5-19.3" stroke-linecap="round" stroke-linejoin="round" stroke-width="3"/><path d="m56.3 121 .1.2" stroke-linecap="round" stroke-linejoin="round" stroke-width="3"/><circle cx="49.8" cy="50" fill-rule="nonzero" r="49.4"/><path d="m98.6 53.3c0 25.4-20.6 46.1-46.1 46.1-14.5 0-27.5-6.7-35.9-17.3-6.3-7.9-10.1-17.9-10.1-28.8 0-25.4 20.6-46.1 46.1-46.1 21.1 0 38.9 14.2 44.3 33.5 1.1 4 1.7 8.2 1.7 12.6z" fill-rule="nonzero"/><path d="m97.5 40.7c-3.7 26.9-26.8 47.7-54.7 47.7-9.2 0-17.9-2.3-25.6-6.3-6.3-7.9-10.1-17.9-10.1-28.8 0-25.4 20.6-46.1 46.1-46.1 21.1 0 38.8 14.2 44.3 33.5z" fill-rule="nonzero"/><g stroke-linecap="round" stroke-linejoin="round" stroke-width="3"><circle cx="49.8" cy="50" r="49.4"/><path d="m8.9 45.2c0-.2 0-.3.1-.5"/><path d="m89.9 59.5c-4.3 18.1-20.6 31.6-40.1 31.6-.6 0-1.3 0-1.9 0"/><path d="m90.9 53.3c0 .2 0 .4-.1.6"/><path d="m37.5 10.6c3.9-1.2 8-1.9 12.3-1.9 1.7 0 3.3.1 4.9.3"/><path d="m9.6 41c2.9-13.1 12-23.8 24-28.9"/></g><path d="m73.7 43.9-.3.3-9.9 9.7c-.3.3-.5.8-.4 1.3l2.4 14c.2 1.2-1.1 2.1-2.1 1.6l-12.6-6.6c-.4-.2-.9-.2-1.4 0l-12 6.3-.6.3c-1.1.6-2.3-.3-2.1-1.6l2.4-14c0-.1 0-.1 0-.2 0-.4-.1-.8-.4-1.1l-8.2-8-2-1.9c-.9-.8-.4-2.3.8-2.5l14.1-2.1c.5-.1.9-.4 1.1-.8l6.3-12.8c.5-1.1 2.1-1.1 2.6 0l1.1 2.2 5.2 10.5c.2.4.6.7 1.1.8h.2l13.8 2c1.3.2 1.7 1.7.9 2.6z" fill-rule="nonzero"/><path d="m65.5 69.1c.2 1.2-1.1 2.1-2.1 1.6l-12.6-6.6c-.4-.2-.9-.2-1.4 0l-12 6.3 2.1-12.2c.1-.5-.1-1-.4-1.3l-2-2-8.2-8c-.3-.3-.5-.7-.4-1.1 0-.7.5-1.3 1.3-1.4l14.1-2.1c.5-.1.9-.4 1.1-.8l6.3-12.8c.3-.5.8-.8 1.3-.8s1.1.3 1.3.8l5.2 10.5 1.1 2.2c.2.4.6.7 1.1.8l12.2 1.8-9.9 9.7c-.3.3-.5.8-.4 1.3z" fill-rule="nonzero"/><path d="m37.4 70.3-.6.3c-1.1.6-2.3-.3-2.1-1.5l2.4-14c.1-.5-.1-1-.4-1.3l-10.2-9.9c-.9-.9-.4-2.3.8-2.5l1.6-.2" stroke-linecap="round" stroke-linejoin="round" stroke-width="3"/><path d="m67 50.4-3.5 3.4c-.3.3-.5.8-.4 1.3l2.4 14c.2 1.2-1.1 2.1-2.1 1.5l-12.6-6.6c-.4-.2-.9-.2-1.4 0l-6.9 3.6" stroke-linecap="round" stroke-linejoin="round" stroke-width="3"/><path d="m70.6 46.8-.3.3" stroke-linecap="round" stroke-linejoin="round" stroke-width="3"/><path d="m41.5 39.3c.4-.1.7-.4.9-.8l6.3-12.8c.5-1.1 2.1-1.1 2.6 0l6.3 12.8c.2.4.6.7 1.1.8l14.1 2c1.2.2 1.7 1.7.8 2.5l-.5.5" stroke-linecap="round" stroke-linejoin="round" stroke-width="3"/><path d="m33.7 40.4 1.7-.2" stroke-linecap="round" stroke-linejoin="round" stroke-width="3"/></g></svg>

<?xml version="1.0" encoding="UTF-8"?>
<svg width="103px" height="150px" viewBox="0 0 103 150" version="1.1" xmlns="http://www.w3.org/2000/svg" xmlns:xlink="http://www.w3.org/1999/xlink">
    <!-- Generator: Sketch 51.2 (57519) - http://www.bohemiancoding.com/sketch -->
    <title>Medal_1_</title>
    <desc>Created with Sketch.</desc>
    <defs></defs>
    <g id="Page-1" stroke="none" stroke-width="1" fill="none" fill-rule="evenodd">
        <g id="Medal_1_" transform="translate(2.000000, 1.000000)">
            <polygon id="Shape" class="fill-neutral" fill-rule="nonzero" points="66.8 48.8 64.3 56.4 64.3 56.4 49.5 100.6 49.5 100.6 48 104.8 40.6 127 39.3 131 36.9 127 27.7 111.7 27 110.6 9.2 117.7 4.9 119.5 10.9 101.7 12.3 97.4 32.5 37.3 35.8 38.4"></polygon>
            <polygon id="Shape" class="fill-neutral" fill-rule="nonzero" points="99.5 135.9 80.4 128.2 77.4 127 67.5 143.5 65.2 147.4 51.3 106 49.5 100.6 37.6 65.3 64.3 56.4 64.3 56.4 68.4 55 71.9 53.8 72.3 54.9 98.9 134.2"></polygon>
            <polygon id="Shape" class="fill-primary-300" fill-rule="nonzero" points="70.5 48.8 68.4 55 67.9 56.4 67.9 56.4 52.4 98.4 52.3 98.8 50.4 99.4 49.5 100.6 49.5 100.6 48 104.8 40.6 127 30.7 110.6 27.7 111.7 27 110.6 9.2 117.7 17.4 93.3 35.8 38.4 36.2 37.3"></polygon>
            <polygon id="Shape" class="fill-primary-300" fill-rule="nonzero" points="98.9 134.2 81.1 127 80.4 128.2 77.4 127 67.5 143.5 54.5 104.7 53.1 100.6 52.4 98.4 51.3 95.1 41.3 65.3 63.8 57.7 67.9 56.4 67.9 56.4 72.3 54.9 84.5 91.3"></polygon>
            <path d="M84.5,91.3 C76.4,98.7 66,103.6 54.5,104.6 C53.3,104.7 52.1,104.8 50.9,104.8 L49.5,100.5 L48.1,104.8 C36.5,104.4 25.8,100.1 17.4,93.3 L35.8,38.4 L36.2,37.3 L70.5,48.8 L68.4,55 L67.9,56.4 L72.3,54.9 L84.5,91.3 Z" id="Shape" fill="#5EA6FF" fill-rule="nonzero"></path>
            <polyline id="Shape" class="stroke-primary" stroke-width="3" stroke-linecap="round" stroke-linejoin="round" points="30.8 116.9 27 110.6 4.9 119.5 14 92.4"></polyline>
            <path d="M33.2,120.8 L32.7,120.1" id="Shape" class="stroke-primary" stroke-width="3" stroke-linecap="round" stroke-linejoin="round"></path>
            <polyline id="Shape" class="stroke-primary" stroke-width="3" stroke-linecap="round" stroke-linejoin="round" points="36.9 127 39.3 131 40.6 127 48 104.8 49.5 100.6 49.5 100.6 64.3 56.4 64.3 56.4 66.8 48.8 35.8 38.4 32.5 37.3 16.1 86.1"></polyline>
            <polyline id="Shape" class="stroke-primary" stroke-width="3" stroke-linecap="round" stroke-linejoin="round" points="55.1 117.4 50.9 104.9 50.9 104.9 49.5 100.6 49.5 100.6 37.6 65.3 64.3 56.4 64.3 56.4 68.4 55 71.9 53.8 72.3 54.9 84.5 91.3 99.5 135.9 77.4 127 65.2 147.4 58.7 128.1"></polyline>
            <path d="M56.3,121 L56.4,121.2" id="Shape" class="stroke-primary" stroke-width="3" stroke-linecap="round" stroke-linejoin="round"></path>
            <circle id="Oval" class="fill-neutral" fill-rule="nonzero" cx="49.8" cy="50" r="49.4"></circle>
            <path d="M98.6,53.3 C98.6,78.7 78,99.4 52.5,99.4 C38,99.4 25,92.7 16.6,82.1 C10.3,74.2 6.5,64.2 6.5,53.3 C6.5,27.9 27.1,7.2 52.6,7.2 C73.7,7.2 91.5,21.4 96.9,40.7 C98,44.7 98.6,48.9 98.6,53.3 Z" id="Shape" class="fill-primary-200" fill-rule="nonzero"></path>
            <path d="M97.5,40.7 C93.8,67.6 70.7,88.4 42.8,88.4 C33.6,88.4 24.9,86.1 17.2,82.1 C10.9,74.2 7.1,64.2 7.1,53.3 C7.1,27.9 27.7,7.2 53.2,7.2 C74.3,7.2 92,21.4 97.5,40.7 Z" id="Shape" class="fill-primary-100" fill-rule="nonzero"></path>
            <circle id="Oval" class="stroke-primary" stroke-width="3" stroke-linecap="round" stroke-linejoin="round" cx="49.8" cy="50" r="49.4"></circle>
            <path d="M8.9,45.2 C8.9,45 8.9,44.9 9,44.7" id="Shape" class="stroke-primary" stroke-width="3" stroke-linecap="round" stroke-linejoin="round"></path>
            <path d="M89.9,59.5 C85.6,77.6 69.3,91.1 49.8,91.1 C49.2,91.1 48.5,91.1 47.9,91.1" id="Shape" class="stroke-primary" stroke-width="3" stroke-linecap="round" stroke-linejoin="round"></path>
            <path d="M90.9,53.3 C90.9,53.5 90.9,53.7 90.8,53.9" id="Shape" class="stroke-primary" stroke-width="3" stroke-linecap="round" stroke-linejoin="round"></path>
            <path d="M37.5,10.6 C41.4,9.4 45.5,8.7 49.8,8.7 C51.5,8.7 53.1,8.8 54.7,9" id="Shape" class="stroke-primary" stroke-width="3" stroke-linecap="round" stroke-linejoin="round"></path>
            <path d="M9.6,41 C12.5,27.9 21.6,17.2 33.6,12.1" id="Shape" class="stroke-primary" stroke-width="3" stroke-linecap="round" stroke-linejoin="round"></path>
            <path d="M73.7,43.9 L73.4,44.2 L63.5,53.9 C63.2,54.2 63,54.7 63.1,55.2 L65.5,69.2 C65.7,70.4 64.4,71.3 63.4,70.8 L50.8,64.2 C50.4,64 49.9,64 49.4,64.2 L37.4,70.5 L36.8,70.8 C35.7,71.4 34.5,70.5 34.7,69.2 L37.1,55.2 C37.1,55.1 37.1,55.1 37.1,55 C37.1,54.6 37,54.2 36.7,53.9 L28.5,45.9 L26.5,44 C25.6,43.2 26.1,41.7 27.3,41.5 L41.4,39.4 C41.9,39.3 42.3,39 42.5,38.6 L48.8,25.8 C49.3,24.7 50.9,24.7 51.4,25.8 L52.5,28 L57.7,38.5 C57.9,38.9 58.3,39.2 58.8,39.3 L59,39.3 L72.8,41.3 C74.1,41.5 74.5,43 73.7,43.9 Z" id="Shape" class="fill-neutral" fill-rule="nonzero"></path>
            <path d="M65.5,69.1 C65.7,70.3 64.4,71.2 63.4,70.7 L50.8,64.1 C50.4,63.9 49.9,63.9 49.4,64.1 L37.4,70.4 L39.5,58.2 C39.6,57.7 39.4,57.2 39.1,56.9 L37.1,54.9 L28.9,46.9 C28.6,46.6 28.4,46.2 28.5,45.8 C28.5,45.1 29,44.5 29.8,44.4 L43.9,42.3 C44.4,42.2 44.8,41.9 45,41.5 L51.3,28.7 C51.6,28.2 52.1,27.9 52.6,27.9 C53.1,27.9 53.7,28.2 53.9,28.7 L59.1,39.2 L60.2,41.4 C60.4,41.8 60.8,42.1 61.3,42.2 L73.5,44 L63.6,53.7 C63.3,54 63.1,54.5 63.2,55 L65.5,69.1 Z" id="Shape" class="fill-primary-300" fill-rule="nonzero"></path>
            <path d="M37.4,70.3 L36.8,70.6 C35.7,71.2 34.5,70.3 34.7,69.1 L37.1,55.1 C37.2,54.6 37,54.1 36.7,53.8 L26.5,43.9 C25.6,43 26.1,41.6 27.3,41.4 L28.9,41.2" id="Shape" class="stroke-primary" stroke-width="3" stroke-linecap="round" stroke-linejoin="round"></path>
            <path d="M67,50.4 L63.5,53.8 C63.2,54.1 63,54.6 63.1,55.1 L65.5,69.1 C65.7,70.3 64.4,71.2 63.4,70.6 L50.8,64 C50.4,63.8 49.9,63.8 49.4,64 L42.5,67.6" id="Shape" class="stroke-primary" stroke-width="3" stroke-linecap="round" stroke-linejoin="round"></path>
            <path d="M70.6,46.8 L70.3,47.1" id="Shape" class="stroke-primary" stroke-width="3" stroke-linecap="round" stroke-linejoin="round"></path>
            <path d="M41.5,39.3 C41.9,39.2 42.2,38.9 42.4,38.5 L48.7,25.7 C49.2,24.6 50.8,24.6 51.3,25.7 L57.6,38.5 C57.8,38.9 58.2,39.2 58.7,39.3 L72.8,41.3 C74,41.5 74.5,43 73.6,43.8 L73.1,44.3" id="Shape" class="stroke-primary" stroke-width="3" stroke-linecap="round" stroke-linejoin="round"></path>
            <path d="M33.7,40.4 L35.4,40.2" id="Shape" class="stroke-primary" stroke-width="3" stroke-linecap="round" stroke-linejoin="round"></path>
        </g>
    </g>
</svg>
